!!!OTL: Hickory Dickory Dock
!!!COM: unknown
!!!ODT: unknown
!!!YOR: The Folksong Fake Book
!!!YOY: 2000
!!!AST: Children's song
!!!YEC: Brian Luke, 2001
**kern	**harm
*k[f#c#]	*k[f#c#]
*M6/8	*M6/8
*D:	*D:
*>A	*>A
=1	=1
8f#	I
8g	.
8a	.
8g	V
8f#	.
8e	.
=2	=2
8f#	I
4r	.
4r	V
8f#	.
=3	=3
8f#	I
8r	.
8a	.
8g	V
8r	.
8e	.
=4	=4
8f#	I
4r	.
4r	V
8f#	.
=5	=5
8f#	I
8r	.
8f#	.
8a	.
8r	.
8a	.
=6	=6
8g	IV
8r	.
8g	.
4.b	.
=7	=7
8a	I
8b	.
8a	.
8g	V
8f#	.
8e	.
=8	=8
8d	I;
4r	.
4.r	.
*-	*-
